; generated by PrusaSlicer 2.7.1+win64 on 2024-02-29 at 06:13:31 UTC


;
;

;
;

;
;

;
;

;
;
; 

; external perimeters extrusion width = 0.45mm
; perimeters extrusion width = 0.45mm
; infill extrusion width = 0.45mm
; solid infill extrusion width = 0.45mm
; top infill extrusion width = 0.42mm
; first layer extrusion width = 0.50mm

M73 P0 R16
M201 X4000 Y4000 Z200 E2500 ; sets maximum accelerations, mm/sec^2
M203 X300 Y300 Z40 E100 ; sets maximum feedrates, mm / sec
M204 P4000 R1200 T4000 ; sets acceleration (P, T) and retract acceleration (R), mm/sec^2
M205 X8.00 Y8.00 Z2.00 E10.00 ; sets the jerk limits, mm/sec
M205 S0 T0 ; sets the minimum extruding and travel feed rate, mm/sec

M486 S0
M486 AXYZ.stl
M486 S-1

M190 S60 ; set bed temperature and wait for it to be reached
M104 S230 ; set temperature
;TYPE:Custom
M109 S230 ; set temperature and wait for it to be reached
G21 ; set units to millimeters
G90 ; use absolute coordinates
M83 ; use relative distances for extrusion
M107 ; disable fan
;LAYER_CHANGE
;Z:0.2
;HEIGHT:0.2
;BEFORE_LAYER_CHANGE
G92 E0.0
;0.2
M201 X4000 Y4000
M74 W0

G1 E-.7 F2100 ; retract
G1 Z.2 F720 ; move to next layer (0)
;AFTER_LAYER_CHANGE
;0.2
G1 X17.694 Y11.928 F18000 ; move to print after unknown position
G1 Z.2 F720 ; move to print after unknown position
G1 E.7 F2100 ;  ; unretract
M204 P500 ; adjust acceleration
;TYPE:Skirt/Brim
;WIDTH:0.5
G1 F2400
G1 X19.494 Y10.099 E.09753 ; skirt
G1 X21.769 Y8.909 E.09758 ; skirt
G1 X24.427 Y8.471 E.10238 ; skirt
G1 X44.427 Y8.471 E.76013 ; skirt
G1 X46.963 Y8.868 E.09756 ; skirt
G1 X49.255 Y10.023 E.09755 ; skirt
G1 X51.084 Y11.824 E.09756 ; skirt
G1 X52.274 Y14.098 E.09755 ; skirt
G1 X52.712 Y16.756 E.10238 ; skirt
G1 X52.712 Y36.756 E.76013 ; skirt
G1 X52.315 Y39.292 E.09756 ; skirt
G1 X51.16 Y41.584 E.09755 ; skirt
G1 X49.359 Y43.413 E.09756 ; skirt
G1 X47.085 Y44.603 E.09755 ; skirt
G1 X44.427 Y45.041 E.10238 ; skirt
G1 X24.427 Y45.041 E.76013 ; skirt
G1 X21.891 Y44.644 E.09756 ; skirt
G1 X19.599 Y43.489 E.09755 ; skirt
G1 X17.77 Y41.688 E.09756 ; skirt
G1 X16.579 Y39.414 E.09756 ; skirt
G1 X16.141 Y36.756 E.10238 ; skirt
G1 X16.141 Y16.756 E.76013 ; skirt
G1 X16.539 Y14.22 E.09756 ; skirt
G1 X17.667 Y11.981 E.09529 ; skirt
M204 P2500 ; adjust acceleration
M204 T4000 ; adjust acceleration
G1 X18.086 Y12.2 F18000 ; move to first skirt point
M204 P500 ; adjust acceleration
G1 F2400
G1 X18.148 Y12.081 E.0051 ; skirt
G1 X19.937 Y10.343 E.0948 ; skirt
G1 X22.183 Y9.256 E.09483 ; skirt
G1 X24.427 Y8.928 E.08619 ; skirt
G1 X44.427 Y8.928 E.76013 ; skirt
G1 X46.889 Y9.325 E.09478 ; skirt
G1 X49.102 Y10.477 E.09482 ; skirt
G1 X50.84 Y12.267 E.09482 ; skirt
G1 X51.927 Y14.512 E.0948 ; skirt
G1 X52.255 Y16.756 E.08619 ; skirt
G1 X52.255 Y36.756 E.76013 ; skirt
G1 X51.858 Y39.219 E.09482 ; skirt
G1 X50.706 Y41.431 E.09479 ; skirt
G1 X48.916 Y43.169 E.09482 ; skirt
G1 X46.671 Y44.256 E.0948 ; skirt
G1 X44.427 Y44.584 E.08619 ; skirt
G1 X24.427 Y44.584 E.76013 ; skirt
G1 X21.964 Y44.187 E.09482 ; skirt
G1 X19.752 Y43.035 E.09479 ; skirt
G1 X18.014 Y41.245 E.09482 ; skirt
G1 X16.927 Y39 E.0948 ; skirt
G1 X16.598 Y36.756 E.0862 ; skirt
G1 X16.598 Y16.756 E.76013 ; skirt
G1 X16.996 Y14.293 E.09482 ; skirt
G1 X18.058 Y12.253 E.08741 ; skirt
M204 P2500 ; adjust acceleration
G1 X18.473 Y12.477 F18000 ; move to first skirt point
M204 P500 ; adjust acceleration
G1 F2400
G1 X18.602 Y12.239 E.01029 ; skirt
G1 X20.379 Y10.596 E.09198 ; skirt
G1 X22.592 Y9.617 E.09197 ; skirt
G1 X24.427 Y9.385 E.0703 ; skirt
G1 X44.427 Y9.385 E.76013 ; skirt
G1 X46.814 Y9.782 E.09197 ; skirt
G1 X48.944 Y10.931 E.09198 ; skirt
G1 X50.587 Y12.708 E.09198 ; skirt
G1 X51.566 Y14.921 E.09197 ; skirt
G1 X51.798 Y16.756 E.0703 ; skirt
G1 X51.798 Y36.756 E.76013 ; skirt
G1 X51.401 Y39.143 E.09197 ; skirt
G1 X50.252 Y41.273 E.09198 ; skirt
G1 X48.475 Y42.916 E.09198 ; skirt
G1 X46.262 Y43.895 E.09197 ; skirt
G1 X44.427 Y44.127 E.0703 ; skirt
G1 X24.427 Y44.127 E.76013 ; skirt
G1 X22.04 Y43.73 E.09197 ; skirt
G1 X19.91 Y42.581 E.09198 ; skirt
G1 X18.267 Y40.804 E.09198 ; skirt
G1 X17.288 Y38.591 E.09197 ; skirt
G1 X17.056 Y36.756 E.0703 ; skirt
G1 X17.056 Y16.756 E.76013 ; skirt
G1 X17.453 Y14.369 E.09197 ; skirt
M73 P1 R16
G1 X18.445 Y12.53 E.07941 ; skirt
M204 P2500 ; adjust acceleration
G1 X18.855 Y12.76 F18000 ; move to first skirt point
M204 P500 ; adjust acceleration
G1 F2400
G1 X19.055 Y12.402 E.01559 ; skirt
G1 X20.818 Y10.858 E.08907 ; skirt
G1 X22.995 Y9.992 E.08905 ; skirt
G1 X24.427 Y9.842 E.05472 ; skirt
G1 X44.427 Y9.842 E.76013 ; skirt
G1 X46.736 Y10.239 E.08904 ; skirt
G1 X48.78 Y11.385 E.08906 ; skirt
G1 X50.325 Y13.147 E.08907 ; skirt
G1 X51.191 Y15.325 E.08908 ; skirt
G1 X51.341 Y16.756 E.05469 ; skirt
G1 X51.341 Y36.756 E.76013 ; skirt
G1 X50.944 Y39.066 E.08908 ; skirt
G1 X49.798 Y41.11 E.08906 ; skirt
G1 X48.035 Y42.654 E.08907 ; skirt
G1 X45.858 Y43.52 E.08905 ; skirt
G1 X44.427 Y43.67 E.05469 ; skirt
G1 X24.427 Y43.67 E.76013 ; skirt
G1 X22.117 Y43.273 E.08908 ; skirt
G1 X20.073 Y42.127 E.08906 ; skirt
G1 X18.529 Y40.365 E.08904 ; skirt
G1 X17.662 Y38.188 E.08906 ; skirt
G1 X17.513 Y36.756 E.05472 ; skirt
G1 X17.513 Y16.756 E.76013 ; skirt
G1 X17.91 Y14.447 E.08904 ; skirt
G1 X18.826 Y12.812 E.07123 ; skirt
M204 P2500 ; adjust acceleration
G1 X19.23 Y13.048 F18000 ; move to first skirt point
M204 P500 ; adjust acceleration
G1 F2400
G1 X19.509 Y12.572 E.02097 ; skirt
G1 X21.255 Y11.132 E.08602 ; skirt
G1 X24.427 Y10.299 E.12464 ; skirt
G1 X44.427 Y10.299 E.76013 ; skirt
G1 X46.656 Y10.696 E.08605 ; skirt
G1 X48.611 Y11.838 E.08605 ; skirt
G1 X50.051 Y13.584 E.08602 ; skirt
G1 X50.884 Y16.756 E.12464 ; skirt
G1 X50.884 Y36.756 E.76013 ; skirt
G1 X50.487 Y38.985 E.08605 ; skirt
G1 X49.345 Y40.94 E.08605 ; skirt
G1 X47.599 Y42.381 E.08604 ; skirt
G1 X44.427 Y43.213 E.12463 ; skirt
G1 X24.427 Y43.213 E.76013 ; skirt
G1 X22.198 Y42.816 E.08605 ; skirt
G1 X20.243 Y41.674 E.08605 ; skirt
G1 X18.802 Y39.928 E.08604 ; skirt
G1 X17.97 Y36.756 E.12463 ; skirt
G1 X17.97 Y16.756 E.76013 ; skirt
G1 X18.367 Y14.527 E.08605 ; skirt
G1 X19.2 Y13.1 E.0628 ; skirt
M204 P2500 ; adjust acceleration
M486 S0
G1 E-.7 F2100 ; retract
G1 X19.2 Y13.1 Z.4 F18014.394 ; move to first perimeter point
G1 X43.52 Y35.849 F18000 ; move to first perimeter point
G1 Z.2 F720 ; move to first perimeter point
G1 E.7 F2100 ;  ; unretract
M204 P500 ; adjust acceleration
;TYPE:Perimeter
;WIDTH:0.499999
G1 F2400
G1 X25.334 Y35.849 E.69118 ; perimeter
G1 X25.334 Y17.663 E.69118 ; perimeter
G1 X43.52 Y17.663 E.69118 ; perimeter
G1 X43.52 Y26.756 E.34559 ; perimeter
G1 X43.52 Y35.789 E.34331 ; perimeter
M204 P2500 ; adjust acceleration
G1 X43.977 Y36.306 F18000 ; move to first perimeter point
M204 P500 ; adjust acceleration
;TYPE:External perimeter
G1 F2400
G1 X24.877 Y36.306 E.72592 ; perimeter
G1 X24.877 Y17.206 E.72592 ; perimeter
G1 X43.977 Y17.206 E.72592 ; perimeter
G1 X43.977 Y26.756 E.36296 ; perimeter
M73 P2 R16
G1 X43.977 Y36.246 E.36068 ; perimeter
M204 P2500 ; adjust acceleration
G1 X43.581 Y36.305 F18000 ; move inwards before travel
G1 E-.7 F2100 ; retract
G1 Z.4 F720 ; move to first infill point
G1 X42.408 Y17.846 F18000 ; move to first infill point
G1 Z.2 F720 ; move to first infill point
G1 E.7 F2100 ;  ; unretract
M204 P500 ; adjust acceleration
;TYPE:Solid infill
;WIDTH:0.502305
G1 F2400
G1 X43.131 Y18.569 E.03906 ; infill
G1 X43.131 Y19.219 E.02483 ; infill
G1 X41.964 Y18.052 E.06304 ; infill
G1 X41.314 Y18.052 E.02483 ; infill
G1 X43.131 Y19.869 E.09815 ; infill
G1 X43.131 Y20.518 E.02479 ; infill
G1 X40.665 Y18.052 E.13321 ; infill
G1 X40.015 Y18.052 E.02483 ; infill
G1 X43.131 Y21.168 E.16833 ; infill
G1 X43.131 Y21.818 E.02483 ; infill
G1 X39.365 Y18.052 E.20344 ; infill
G1 X38.716 Y18.052 E.02479 ; infill
G1 X43.131 Y22.467 E.2385 ; infill
G1 X43.131 Y23.117 E.02483 ; infill
G1 X38.066 Y18.052 E.27361 ; infill
G1 X37.416 Y18.052 E.02483 ; infill
G1 X43.131 Y23.767 E.30873 ; infill
G1 X43.131 Y24.416 E.02479 ; infill
G1 X36.767 Y18.052 E.34378 ; infill
G1 X36.117 Y18.052 E.02483 ; infill
G1 X43.131 Y25.066 E.3789 ; infill
G1 X43.131 Y25.716 E.02483 ; infill
G1 X35.467 Y18.052 E.41401 ; infill
G1 X34.818 Y18.052 E.02479 ; infill
G1 X43.131 Y26.365 E.44907 ; infill
G1 X43.131 Y27.015 E.02483 ; infill
G1 X34.168 Y18.052 E.48418 ; infill
G1 X33.518 Y18.052 E.02483 ; infill
G1 X43.131 Y27.665 E.5193 ; infill
G1 X43.131 Y28.314 E.02479 ; infill
G1 X32.869 Y18.052 E.55435 ; infill
G1 X32.219 Y18.052 E.02483 ; infill
G1 X43.131 Y28.964 E.58947 ; infill
G1 X43.131 Y29.614 E.02483 ; infill
G1 X31.569 Y18.052 E.62458 ; infill
G1 X30.92 Y18.052 E.02479 ; infill
G1 X43.131 Y30.263 E.65964 ; infill
G1 X43.131 Y30.913 E.02483 ; infill
G1 X30.27 Y18.052 E.69475 ; infill
G1 X29.62 Y18.052 E.02483 ; infill
G1 X43.131 Y31.563 E.72987 ; infill
G1 X43.131 Y32.212 E.02479 ; infill
G1 X28.971 Y18.052 E.76493 ; infill
G1 X28.321 Y18.052 E.02483 ; infill
G1 X43.131 Y32.862 E.80004 ; infill
G1 X43.131 Y33.512 E.02483 ; infill
G1 X27.671 Y18.052 E.83515 ; infill
G1 X27.022 Y18.052 E.02479 ; infill
G1 X43.131 Y34.161 E.87021 ; infill
M73 P3 R16
G1 X43.131 Y34.811 E.02483 ; infill
G1 X26.372 Y18.052 E.90532 ; infill
G1 X25.722 Y18.052 E.02483 ; infill
G1 X43.131 Y35.46 E.94041 ; infill
G1 X42.481 Y35.46 E.02483 ; infill
G1 X25.722 Y18.701 E.90532 ; infill
G1 X25.722 Y19.351 E.02483 ; infill
G1 X41.832 Y35.46 E.87024 ; infill
G1 X41.182 Y35.46 E.02483 ; infill
G1 X25.722 Y20.001 E.83512 ; infill
G1 X25.722 Y20.65 E.02479 ; infill
G1 X40.532 Y35.46 E.80004 ; infill
G1 X39.883 Y35.46 E.02479 ; infill
G1 X25.722 Y21.3 E.76495 ; infill
G1 X25.722 Y21.95 E.02483 ; infill
G1 X39.233 Y35.46 E.72984 ; infill
G1 X38.583 Y35.46 E.02483 ; infill
G1 X25.722 Y22.599 E.69475 ; infill
G1 X25.722 Y23.249 E.02483 ; infill
G1 X37.934 Y35.46 E.65967 ; infill
G1 X37.284 Y35.46 E.02483 ; infill
G1 X25.722 Y23.899 E.62455 ; infill
G1 X25.722 Y24.548 E.02479 ; infill
G1 X36.634 Y35.46 E.58947 ; infill
G1 X35.985 Y35.46 E.02479 ; infill
G1 X25.722 Y25.198 E.55438 ; infill
G1 X25.722 Y25.848 E.02483 ; infill
G1 X35.335 Y35.46 E.51927 ; infill
G1 X34.685 Y35.46 E.02483 ; infill
G1 X25.722 Y26.497 E.48418 ; infill
G1 X25.722 Y27.147 E.02483 ; infill
G1 X34.036 Y35.46 E.4491 ; infill
G1 X33.386 Y35.46 E.02483 ; infill
G1 X25.722 Y27.797 E.41398 ; infill
G1 X25.722 Y28.446 E.02479 ; infill
G1 X32.736 Y35.46 E.3789 ; infill
G1 X32.087 Y35.46 E.02479 ; infill
G1 X25.722 Y29.096 E.34381 ; infill
M73 P4 R16
G1 X25.722 Y29.746 E.02483 ; infill
G1 X31.437 Y35.46 E.3087 ; infill
G1 X30.787 Y35.46 E.02483 ; infill
G1 X25.722 Y30.395 E.27361 ; infill
G1 X25.722 Y31.045 E.02483 ; infill
G1 X30.138 Y35.46 E.23853 ; infill
G1 X29.488 Y35.46 E.02483 ; infill
G1 X25.722 Y31.695 E.20341 ; infill
G1 X25.722 Y32.344 E.02479 ; infill
G1 X28.838 Y35.46 E.16833 ; infill
G1 X28.189 Y35.46 E.02479 ; infill
G1 X25.722 Y32.994 E.13324 ; infill
G1 X25.722 Y33.644 E.02483 ; infill
G1 X27.539 Y35.46 E.09813 ; infill
G1 X26.889 Y35.46 E.02483 ; infill
G1 X25.722 Y34.293 E.06304 ; infill
G1 X25.722 Y34.943 E.02483 ; infill
G1 X26.445 Y35.666 E.03906 ; infill
M204 P2500 ; adjust acceleration
M486 S-1
M106 S127.5 ; enable fan
;LAYER_CHANGE
;Z:0.4
;HEIGHT:0.2
;BEFORE_LAYER_CHANGE
G92 E0.0
;0.4
M201 X3999.82 Y3999.82
M74 W0.16742

G1 E-.7 F2100 ; retract
G1 Z.4 F720 ; move to next layer (1)
;AFTER_LAYER_CHANGE
;0.4
M104 S220 ; set temperature
M486 S0
G1 X26.445 Y35.666 Z.6 F18014.394 ; move to first perimeter point
G1 X43.795 Y36.124 F18000 ; move to first perimeter point
G1 Z.4 F720 ; move to first perimeter point
G1 E.7 F2100 ;  ; unretract
;TYPE:Perimeter
;WIDTH:0.449999
G1 F3963.416
G1 X25.059 Y36.124 E.63419 ; perimeter
G1 X25.059 Y17.388 E.63419 ; perimeter
G1 X43.795 Y17.388 E.63419 ; perimeter
G1 X43.795 Y26.756 E.3171 ; perimeter
G1 X43.795 Y36.064 E.31506 ; perimeter
G1 X44.202 Y36.531 F18000 ; move to first perimeter point
M204 P1500 ; adjust acceleration
;TYPE:External perimeter
G1 F2584.792
G1 X24.652 Y36.531 E.66174 ; perimeter
G1 X24.652 Y16.981 E.66174 ; perimeter
G1 X44.202 Y16.981 E.66174 ; perimeter
G1 X44.202 Y26.756 E.33087 ; perimeter
G1 X44.202 Y36.471 E.32884 ; perimeter
M204 P2500 ; adjust acceleration
G1 X43.806 Y36.53 F18000 ; move inwards before travel
G1 E-.7 F2100 ; retract
G1 Z.6 F720 ; move to first infill point
G1 X25.515 Y17.767 F18000 ; move to first infill point
G1 Z.4 F720 ; move to first infill point
G1 E.7 F2100 ;  ; unretract
M204 P3000 ; adjust acceleration
;TYPE:Solid infill
;WIDTH:0.548766
G1 F8895.988
G2 X25.499 Y17.828 I-.058 J.017 E.01323 ; infill
;WIDTH:0.449999
G1 F10579
G1 X25.405 Y18.478 E.02223 ; infill
G1 X26.149 Y17.734 E.03561 ; infill
G1 X26.725 Y17.734 E.0195 ; infill
G1 X25.405 Y19.054 E.06319 ; infill
G1 X25.405 Y19.63 E.0195 ; infill
G1 X27.301 Y17.734 E.09076 ; infill
G1 X27.876 Y17.734 E.01946 ; infill
G1 X25.405 Y20.206 E.11831 ; infill
G1 X25.405 Y20.781 E.01946 ; infill
G1 X28.452 Y17.734 E.14586 ; infill
G1 X29.028 Y17.734 E.0195 ; infill
G1 X25.405 Y21.357 E.17343 ; infill
G1 X25.405 Y21.933 E.0195 ; infill
G1 X29.603 Y17.734 E.20098 ; infill
G1 X30.179 Y17.734 E.0195 ; infill
G1 X25.405 Y22.508 E.22853 ; infill
G1 X25.405 Y23.084 E.0195 ; infill
G1 X30.755 Y17.734 E.2561 ; infill
G1 X31.33 Y17.734 E.01946 ; infill
G1 X25.405 Y23.66 E.28365 ; infill
G1 X25.405 Y24.235 E.01946 ; infill
G1 X31.906 Y17.734 E.3112 ; infill
G1 X32.482 Y17.734 E.0195 ; infill
G1 X25.405 Y24.811 E.33877 ; infill
G1 X25.405 Y25.387 E.0195 ; infill
G1 X33.058 Y17.734 E.36634 ; infill
G1 X33.633 Y17.734 E.01946 ; infill
G1 X25.405 Y25.963 E.39389 ; infill
G1 X25.405 Y26.538 E.01946 ; infill
G1 X34.209 Y17.734 E.42144 ; infill
G1 X34.785 Y17.734 E.0195 ; infill
G1 X25.405 Y27.114 E.44901 ; infill
G1 X25.405 Y27.69 E.0195 ; infill
G1 X35.36 Y17.734 E.47656 ; infill
G1 X35.936 Y17.734 E.0195 ; infill
G1 X25.405 Y28.265 E.50411 ; infill
G1 X25.405 Y28.841 E.0195 ; infill
G1 X36.512 Y17.734 E.53169 ; infill
G1 X37.087 Y17.734 E.01946 ; infill
G1 X25.405 Y29.417 E.55923 ; infill
G1 X25.405 Y29.992 E.01946 ; infill
G1 X37.663 Y17.734 E.58678 ; infill
G1 X38.239 Y17.734 E.0195 ; infill
G1 X25.405 Y30.568 E.61436 ; infill
G1 X25.405 Y31.144 E.0195 ; infill
G1 X38.815 Y17.734 E.64193 ; infill
G1 X39.39 Y17.734 E.01946 ; infill
G1 X25.405 Y31.72 E.66948 ; infill
G1 X25.405 Y32.295 E.01946 ; infill
G1 X39.966 Y17.734 E.69703 ; infill
G1 X40.542 Y17.734 E.0195 ; infill
G1 X25.405 Y32.871 E.7246 ; infill
G1 X25.405 Y33.447 E.0195 ; infill
G1 X41.117 Y17.734 E.75215 ; infill
G1 X41.693 Y17.734 E.0195 ; infill
G1 X25.405 Y34.022 E.7797 ; infill
G1 X25.405 Y34.598 E.0195 ; infill
G1 X42.269 Y17.734 E.80727 ; infill
G1 X42.844 Y17.734 E.01946 ; infill
G1 X25.405 Y35.174 E.83482 ; infill
G1 X25.405 Y35.749 E.01946 ; infill
M73 P5 R16
G1 X43.42 Y17.734 E.86237 ; infill
G1 X43.449 Y18.281 E.01854 ; infill
G1 X25.952 Y35.778 E.83757 ; infill
G1 X26.528 Y35.778 E.0195 ; infill
G1 X43.449 Y18.857 E.81 ; infill
G1 X43.449 Y19.433 E.0195 ; infill
G1 X27.103 Y35.778 E.78245 ; infill
G1 X27.679 Y35.778 E.0195 ; infill
G1 X43.449 Y20.008 E.7549 ; infill
G1 X43.449 Y20.584 E.0195 ; infill
G1 X28.255 Y35.778 E.72733 ; infill
G1 X28.83 Y35.778 E.01946 ; infill
G1 X43.449 Y21.16 E.69978 ; infill
G1 X43.449 Y21.735 E.01946 ; infill
G1 X29.406 Y35.778 E.67223 ; infill
G1 X29.982 Y35.778 E.0195 ; infill
G1 X43.449 Y22.311 E.64466 ; infill
G1 X43.449 Y22.887 E.0195 ; infill
G1 X30.558 Y35.778 E.61708 ; infill
G1 X31.133 Y35.778 E.01946 ; infill
G1 X43.449 Y23.463 E.58954 ; infill
G1 X43.449 Y24.038 E.01946 ; infill
G1 X31.709 Y35.778 E.56199 ; infill
G1 X32.285 Y35.778 E.0195 ; infill
G1 X43.449 Y24.614 E.53441 ; infill
G1 X43.449 Y25.19 E.0195 ; infill
G1 X32.86 Y35.778 E.50686 ; infill
G1 X33.436 Y35.778 E.0195 ; infill
G1 X43.449 Y25.765 E.47932 ; infill
G1 X43.449 Y26.341 E.0195 ; infill
G1 X34.012 Y35.778 E.45174 ; infill
G1 X34.587 Y35.778 E.01946 ; infill
G1 X43.449 Y26.917 E.42419 ; infill
G1 X43.449 Y27.492 E.01946 ; infill
